images/logos/Vitol.svg

<?xml version="1.0" encoding="UTF-8" standalone="no"?>
<!DOCTYPE svg PUBLIC "-//W3C//DTD SVG 1.0//EN" "http://www.w3.org/TR/2001/REC-SVG-20010904/DTD/svg10.dtd">
<!-- Created with Inkscape (http://www.inkscape.org/) by Marsupilami -->
<svg
   xmlns:svg="http://www.w3.org/2000/svg"
   xmlns="http://www.w3.org/2000/svg"
   version="1.0"
   width="1024"
   height="326"
   viewBox="-1.14450738 -1.14450738 126.94126476 40.43926076"
   id="svg2722">
  <defs
     id="defs2724" />
  <path
     d="M 68.5435,37.512246 L 75.19725,37.512246 L 75.19725,10.59475 L 68.5435,10.59475 L 68.5435,37.512246 z"
     id="path2568"
     style="fill:#002a55;fill-opacity:1;fill-rule:nonzero;stroke:none" />
  <path
     d="M 68.54325,0.33775 L 75.197,0.33775 L 75.197,6.429 L 68.54325,6.429 L 68.54325,0.33775 z"
     id="path2572"
     style="fill:#002a55;fill-opacity:1;fill-rule:nonzero;stroke:none" />
  <path
     d="M 91.9595,10.58625 L 91.9595,15.52625 L 87.092,15.52625 L 87.092,28.839996 C 87.092,30.088746 87.27825,30.921246 87.65325,31.337496 C 88.02825,31.752496 88.77575,31.961246 89.8995,31.961246 C 90.2745,31.961246 90.63325,31.943746 90.97575,31.908746 C 91.3195,31.874996 91.647,31.822496 91.9595,31.752496 L 91.9595,37.473746 C 91.39825,37.577496 90.77325,37.647496 90.087,37.681246 C 89.40075,37.716246 88.7295,37.733746 88.0745,37.733746 C 87.0445,37.733746 86.0695,37.656246 85.1495,37.499996 C 84.22825,37.343746 83.417,37.041246 82.71575,36.589996 C 82.01325,36.139996 81.45825,35.497496 81.05325,34.664996 C 80.64825,33.833746 80.4445,32.741246 80.4445,31.388746 L 80.4445,15.52625 L 76.4195,15.52625 L 76.4195,10.58625 L 80.4445,10.58625 L 80.4445,2.525 L 87.092,2.525 L 87.092,10.58625 L 91.9595,10.58625 z"
     id="path2584"
     style="fill:#002a55;fill-opacity:1;fill-rule:nonzero;stroke:none" />
  <path
     d="M 98.62088,27.202746 C 98.80838,28.225246 99.12838,29.145246 99.58088,29.958996 C 100.03213,30.773996 100.63338,31.425246 101.38213,31.908996 C 102.13088,32.395246 103.06713,32.637746 104.19088,32.637746 C 105.31463,32.637746 106.25838,32.395246 107.02213,31.908996 C 107.78713,31.425246 108.39588,30.773996 108.84838,29.958996 C 109.30088,29.145246 109.62088,28.225246 109.80713,27.202746 C 109.99463,26.180246 110.08838,25.131496 110.08838,24.056496 C 110.08838,22.981496 109.99463,21.923996 109.80713,20.883996 C 109.62088,19.843996 109.30088,18.925246 108.84838,18.12775 C 108.39588,17.33025 107.78713,16.68025 107.02213,16.17775 C 106.25838,15.67525 105.31463,15.42275 104.19088,15.42275 C 103.06713,15.42275 102.13088,15.67525 101.38213,16.17775 C 100.63338,16.68025 100.03213,17.33025 99.58088,18.12775 C 99.12838,18.925246 98.80838,19.843996 98.62088,20.883996 C 98.43338,21.923996 98.33963,22.981496 98.33963,24.056496 C 98.33963,25.131496 98.43338,26.180246 98.62088,27.202746 M 92.58338,18.205246 C 93.17588,16.45525 94.01838,14.964 95.11088,13.73275 C 96.20213,12.50275 97.51338,11.549 99.04213,10.87275 C 100.57088,10.1965 102.28713,9.859 104.19088,9.859 C 106.09338,9.859 107.81838,10.1965 109.36338,10.87275 C 110.90713,11.549 112.22588,12.50275 113.31838,13.73275 C 114.41088,14.964 115.25213,16.45525 115.84588,18.205246 C 116.43838,19.956496 116.73463,21.906496 116.73463,24.056496 C 116.73463,26.206496 116.43838,28.147746 115.84588,29.881496 C 115.25213,31.615246 114.41088,33.097746 113.31838,34.327746 C 112.22588,35.558996 110.90713,36.503996 109.36338,37.162746 C 107.81838,37.820246 106.09338,38.150246 104.19088,38.150246 C 102.28713,38.150246 100.57088,37.820246 99.04213,37.162746 C 97.51338,36.503996 96.20213,35.558996 95.11088,34.327746 C 94.01838,33.097746 93.17588,31.615246 92.58338,29.881496 C 91.98963,28.147746 91.69338,26.206496 91.69338,24.056496 C 91.69338,21.906496 91.98963,19.956496 92.58338,18.205246"
     id="path2588"
     style="fill:#002a55;fill-opacity:1;fill-rule:nonzero;stroke:none" />
  <path
     d="M 124.65225,37.443496 L 118.006,37.443496 L 118.006,0.30975 L 124.65225,0.30975 L 124.65225,37.443496 z"
     id="path2590"
     style="fill:#002a55;fill-opacity:1;fill-rule:nonzero;stroke:none" />
  <path
     d="M 61.13575,0.33775 L 68.8695,0.33775 L 57.74075,37.512746 L 49.447,37.512746 L 38.61075,0.33775 L 46.04575,0.33775 L 53.7795,27.277746 L 61.13575,0.33775 z"
     id="path2594"
     style="fill:#002a55;fill-opacity:1;fill-rule:nonzero;stroke:none" />
  <path
     d="M 16.55813,30.190621 C 19.65938,30.190621 21.89188,28.636871 23.29438,26.823121 C 24.01938,25.885621 24.59813,24.714371 24.89188,23.331871 C 25.55063,20.239371 24.21438,17.40312 22.85188,15.61187 C 22.12688,14.65687 21.31313,13.83937 20.49188,12.90687 C 19.73563,12.05062 18.83438,11.16062 18.15563,10.15437 C 17.67438,9.43812 17.18938,8.59687 16.80438,7.69562 C 16.68438,7.41562 16.52563,6.96687 16.42938,6.77312 L 16.42938,6.73687 C 16.42688,6.74187 16.42313,6.74937 16.42063,6.75437 C 16.41688,6.74937 16.41313,6.74187 16.41063,6.73687 L 16.41063,6.77312 C 16.31438,6.96687 16.15563,7.41562 16.03688,7.69562 C 15.65188,8.59687 15.16563,9.43812 14.68438,10.15437 C 14.00688,11.16062 13.10438,12.05062 12.34813,12.90687 C 11.52688,13.83937 10.71438,14.65687 9.98813,15.61187 C 8.62688,17.40312 7.28938,20.239371 7.94813,23.331871 C 8.24188,24.714371 8.82188,25.885621 9.54563,26.823121 C 10.94938,28.636871 13.18063,30.190621 16.28188,30.190621"
     id="path2598"
     style="fill:#f7921e;fill-opacity:1;fill-rule:evenodd;stroke:none" />
  <path
     d="M 16.21625,35.514996 C 13.78875,35.514996 11.80125,34.914996 10.0675,34.088746 C 8.35125,33.269996 6.905,32.144996 5.71375,30.792496 C 3.46875,28.243746 1.5725,24.233746 2.27125,19.282496 C 2.57875,17.0975 3.365,15.3125 4.36125,13.74875 C 5.3475,12.19875 6.51625,10.73625 7.755,9.49375 C 8.9925,8.25125 10.52,7.175 11.6175,5.705 C 12.70625,4.2475 13.47125,2.525 13.55625,-8.5265128e-14 L 2.48,-8.5265128e-14 C 1.11125,-8.5265128e-14 0,1.11 0,2.47875 L 0,35.226246 C 0,36.594996 1.11125,37.704996 2.48,37.704996 L 30.23125,37.704996 C 31.60125,37.704996 32.71125,36.594996 32.71125,35.226246 L 32.71125,2.47875 C 32.71125,1.11 31.60125,-8.5265128e-14 30.23125,-8.5265128e-14 L 19.155,-8.5265128e-14 C 19.24,2.525 20.00625,4.2475 21.095,5.705 C 22.19125,7.175 23.71875,8.25125 24.95625,9.49375 C 26.195,10.73625 27.36375,12.19875 28.35,13.74875 C 29.34625,15.3125 30.1325,17.0975 30.44125,19.282496 C 31.14,24.233746 29.2425,28.243746 26.9975,30.792496 C 25.8075,32.144996 24.36,33.269996 22.64375,34.088746 C 20.91125,34.914996 18.9225,35.514996 16.495,35.514996"
     id="path2602"
     style="fill:#e5e6e6;fill-opacity:1;fill-rule:nonzero;stroke:none" />
</svg>
<!-- version: 20090314, original size: 124.65225 38.150246, border: 3% -->

<?xml version="1.0" encoding="UTF-8"?>
<!-- Created with Inkscape (http://www.inkscape.org/) by Marsupilami -->
<svg width="1280" height="512" version="1.0" viewBox="-1.1445 -1.1445 158.68 63.51" xmlns="http://www.w3.org/2000/svg">
 <g transform="translate(15.868 11.535)">
  <g fill="#002a55">
   <path d="m68.544 37.512h6.6538v-26.917h-6.6538z"/>
   <path d="m68.543 0.33775h6.6538v6.0912h-6.6538z"/>
   <path d="m91.96 10.586v4.94h-4.8675v13.314c0 1.2488 0.18625 2.0812 0.56125 2.4975 0.375 0.415 1.1225 0.62375 2.2462 0.62375 0.375 0 0.73375-0.0175 1.0762-0.0525 0.34375-0.03375 0.67125-0.08625 0.98375-0.15625v5.7212c-0.56125 0.10375-1.1862 0.17375-1.8725 0.2075-0.68625 0.035-1.3575 0.0525-2.0125 0.0525-1.03 0-2.005-0.0775-2.925-0.23375-0.92125-0.15625-1.7325-0.45875-2.4338-0.91-0.7025-0.45-1.2575-1.0925-1.6625-1.925-0.405-0.83125-0.60875-1.9238-0.60875-3.2762v-15.862h-4.025v-4.94h4.025v-8.0612h6.6475v8.0612z"/>
   <path d="m98.621 27.203c0.1875 1.0225 0.5075 1.9425 0.96 2.7562 0.45125 0.815 1.0525 1.4662 1.8012 1.95 0.74875 0.48625 1.685 0.72875 2.8088 0.72875s2.0675-0.2425 2.8312-0.72875c0.765-0.48375 1.3738-1.135 1.8262-1.95 0.4525-0.81375 0.7725-1.7338 0.95875-2.7562 0.1875-1.0225 0.28125-2.0712 0.28125-3.1462s-0.0937-2.1325-0.28125-3.1725c-0.18625-1.04-0.50625-1.9588-0.95875-2.7562-0.4525-0.7975-1.0612-1.4475-1.8262-1.95-0.76375-0.5025-1.7075-0.755-2.8312-0.755s-2.06 0.2525-2.8088 0.755-1.35 1.1525-1.8012 1.95c-0.4525 0.7975-0.7725 1.7162-0.96 2.7562s-0.28125 2.0975-0.28125 3.1725 0.09375 2.1238 0.28125 3.1462m-6.0375-8.9975c0.5925-1.75 1.435-3.2412 2.5275-4.4725 1.0912-1.23 2.4025-2.1838 3.9312-2.86s3.245-1.0138 5.1488-1.0138c1.9025 0 3.6275 0.3375 5.1725 1.0138 1.5438 0.67625 2.8625 1.63 3.955 2.86 1.0925 1.2312 1.9338 2.7225 2.5275 4.4725 0.5925 1.7512 0.88875 3.7012 0.88875 5.8512s-0.29625 4.0912-0.88875 5.825c-0.59375 1.7338-1.435 3.2162-2.5275 4.4462-1.0925 1.2312-2.4112 2.1762-3.955 2.835-1.545 0.6575-3.27 0.9875-5.1725 0.9875-1.9038 0-3.62-0.33-5.1488-0.9875-1.5288-0.65875-2.84-1.6038-3.9312-2.835-1.0925-1.23-1.935-2.7125-2.5275-4.4462-0.59375-1.7338-0.89-3.675-0.89-5.825s0.29625-4.1 0.89-5.8512"/>
   <path d="m124.65 37.443h-6.6462v-37.134h6.6462z"/>
   <path d="m61.136 0.33775h7.7338l-11.129 37.175h-8.2938l-10.836-37.175h7.435l7.7338 26.94z"/>
  </g>
  <path d="m16.558 30.191c3.1012 0 5.3338-1.5538 6.7362-3.3675 0.725-0.9375 1.3038-2.1088 1.5975-3.4912 0.65875-3.0925-0.6775-5.9288-2.04-7.72-0.725-0.955-1.5388-1.7725-2.36-2.705-0.75625-0.85625-1.6575-1.7462-2.3362-2.7525-0.48125-0.71625-0.96625-1.5575-1.3512-2.4588-0.12-0.28-0.27875-0.72875-0.375-0.9225v-0.03625c-0.0025 5e-3 -0.0062 0.0125-0.0087 0.0175-0.0038-5e-3 -0.0075-0.0125-0.01-0.0175v0.03625c-0.09625 0.19375-0.255 0.6425-0.37375 0.9225-0.385 0.90125-0.87125 1.7425-1.3525 2.4588-0.6775 1.0062-1.58 1.8962-2.3362 2.7525-0.82125 0.9325-1.6338 1.75-2.36 2.705-1.3612 1.7912-2.6988 4.6275-2.04 7.72 0.29375 1.3825 0.87375 2.5538 1.5975 3.4912 1.4038 1.8138 3.635 3.3675 6.7362 3.3675" fill="#f7921e" fill-rule="evenodd"/>
  <path d="m16.216 35.515c-2.4275 0-4.415-0.6-6.1488-1.4262-1.7162-0.81875-3.1625-1.9438-4.3538-3.2962-2.245-2.5488-4.1412-6.5588-3.4425-11.51 0.3075-2.185 1.0938-3.97 2.09-5.5337 0.98625-1.55 2.155-3.0125 3.3938-4.255 1.2375-1.2425 2.765-2.3188 3.8625-3.7888 1.0888-1.4575 1.8538-3.18 1.9388-5.705h-11.076c-1.3688 0-2.48 1.11-2.48 2.4788v32.747c0 1.3688 1.1112 2.4788 2.48 2.4788h27.751c1.37 0 2.48-1.11 2.48-2.4788v-32.747c0-1.3688-1.11-2.4788-2.48-2.4788h-11.076c0.085 2.525 0.85125 4.2475 1.94 5.705 1.0962 1.47 2.6238 2.5462 3.8612 3.7888 1.2388 1.2425 2.4075 2.705 3.3938 4.255 0.99625 1.5638 1.7825 3.3488 2.0912 5.5337 0.69875 4.9512-1.1988 8.9612-3.4438 11.51-1.19 1.3525-2.6375 2.4775-4.3538 3.2962-1.7325 0.82625-3.7212 1.4262-6.1488 1.4262" fill="#e5e6e6"/>
 </g>
</svg>
<!-- version: 20090314, original size: 124.65225 38.150246, border: 3% -->
